X:1
T:Nell Flaherty's Drake
M:3/4
L:1/4
K:G
 D/2D/2| G, G, G,| G,- B, D| G, G, G,| G, B, D| G F G| E D B,| B,/2 A,3/2G,/2-A,/2|\
 A, z D| D3/2 E/2 D| D B, A,| G, G, G,| G,- B, D| G F G| E D B,/2B,/2|\
 A,/2 G,3/2- G,/2 F,/2| G, z D/2D/2| D E F| G2 G| A G F| E z D/2D/2|\
 G3/2 F/2 G| E D B,| B,3/2 A,/2 A,| A, z D| G, G, G,| G, B, D| G, G, G,|\
 G, B, D| G F G| E D B,| A,3/2 G,/2 F,| G,2||
